src/pos-icons/language-lua.svg

<svg height="24" viewBox="0 0 24 24" width="24" xmlns="http://www.w3.org/2000/svg"><path d="m10.5 5a8.5 8.5 0 0 0 -8.5 8.5 8.5 8.5 0 0 0 8.5 8.5 8.5 8.5 0 0 0 8.5-8.5 8.5 8.5 0 0 0 -8.5-8.5m3 8a2.5 2.5 0 0 1 -2.5-2.5 2.5 2.5 0 0 1 2.5-2.5 2.5 2.5 0 0 1 2.5 2.5 2.5 2.5 0 0 1 -2.5 2.5m6-11a2.5 2.5 0 0 0 -2.5 2.5 2.5 2.5 0 0 0 2.5 2.5 2.5 2.5 0 0 0 2.5-2.5 2.5 2.5 0 0 0 -2.5-2.5"/></svg>

<?xml version="1.0" encoding="UTF-8"?><!DOCTYPE svg PUBLIC "-//W3C//DTD SVG 1.1//EN" "http://www.w3.org/Graphics/SVG/1.1/DTD/svg11.dtd"><svg xmlns="http://www.w3.org/2000/svg" xmlns:xlink="http://www.w3.org/1999/xlink" version="1.1" id="mdi-language-lua" width="24" height="24" viewBox="0 0 24 24"><path d="M10.5,5A8.5,8.5 0 0,0 2,13.5A8.5,8.5 0 0,0 10.5,22A8.5,8.5 0 0,0 19,13.5A8.5,8.5 0 0,0 10.5,5M13.5,13A2.5,2.5 0 0,1 11,10.5A2.5,2.5 0 0,1 13.5,8A2.5,2.5 0 0,1 16,10.5A2.5,2.5 0 0,1 13.5,13M19.5,2A2.5,2.5 0 0,0 17,4.5A2.5,2.5 0 0,0 19.5,7A2.5,2.5 0 0,0 22,4.5A2.5,2.5 0 0,0 19.5,2" /></svg>
